lib/svg/dashboard.svg

<svg xmlns="http://www.w3.org/2000/svg" width="16" height="16" viewBox="0 0 16 16"><path d="M9 5H8V4h1v1zm4 3h-1v1h1V8zM6 5H5v1h1V5zM5 8H4v1h1V8zm11-5.5l-.5-.5L9 7c-.06-.02-1 0-1 0-.55 0-1 .45-1 1v1c0 .55.45 1 1 1h1c.55 0 1-.45 1-1v-.92l6-5.58zm-1.59 4.09c.19.61.3 1.25.3 1.91 0 3.42-2.78 6.2-6.2 6.2-3.42 0-6.21-2.78-6.21-6.2 0-3.42 2.78-6.2 6.2-6.2 1.2 0 2.31.34 3.27.94l.94-.94A7.459 7.459 0 0 0 8.51 1C4.36 1 1 4.36 1 8.5 1 12.64 4.36 16 8.5 16c4.14 0 7.5-3.36 7.5-7.5 0-1.03-.2-2.02-.59-2.91l-1 1z"/></svg>

<?xml version="1.0" encoding="UTF-8" standalone="no"?>
<svg width="16px" height="16px" viewBox="0 0 16 16" version="1.1" xmlns="http://www.w3.org/2000/svg" xmlns:xlink="http://www.w3.org/1999/xlink">
    <!-- Generator: Sketch 3.8.3 (29802) - http://www.bohemiancoding.com/sketch -->
    <title>dashboard</title>
    <desc>Created with Sketch.</desc>
    <defs></defs>
    <g id="Octicons" stroke="none" stroke-width="1" fill="none" fill-rule="evenodd">
        <g id="dashboard" fill="#000000">
            <path d="M9,5 L8,5 L8,4 L9,4 L9,5 L9,5 Z M13,8 L12,8 L12,9 L13,9 L13,8 L13,8 Z M6,5 L5,5 L5,6 L6,6 L6,5 L6,5 Z M5,8 L4,8 L4,9 L5,9 L5,8 L5,8 Z M16,2.5 L15.5,2 L9,7 C8.94,6.98 8,7 8,7 C7.45,7 7,7.45 7,8 L7,9 C7,9.55 7.45,10 8,10 L9,10 C9.55,10 10,9.55 10,9 L10,8.08 L16,2.5 L16,2.5 Z M14.41,6.59 C14.6,7.2 14.71,7.84 14.71,8.5 C14.71,11.92 11.93,14.7 8.51,14.7 C5.09,14.7 2.3,11.92 2.3,8.5 C2.3,5.08 5.08,2.3 8.5,2.3 C9.7,2.3 10.81,2.64 11.77,3.24 L12.71,2.3 C11.52,1.49 10.07,1 8.51,1 C4.36,1 1,4.36 1,8.5 C1,12.64 4.36,16 8.5,16 C12.64,16 16,12.64 16,8.5 C16,7.47 15.8,6.48 15.41,5.59 L14.41,6.59 L14.41,6.59 Z" id="Shape"></path>
        </g>
    </g>
</svg>
